X: 7
T: No_106_Do_Not_Weep.krn
%%abc-version 2.0
%%abcx-abcm2ps-target-version 5.9.1 (29 Sep 2008)
%%abc-creator hum2abc beta
%%abcx-conversion-date 2020/08/10 18:54:57
%%humdrum-veritas 2024930015
%%humdrum-veritas-data 4081664120
%%linebreak <none>
%%barnumbers 0
L: 1/8
M: 3/4
K: Eb clef=bass
[K:clef=bass][M:3/4]CC CG,C2 ||  
[M:2/4]G,4 ||  
[M:3/4]CG, F,E,G,2 ||  
[M:2/4]F,4 ||  
[M:3/4]CF, F,C,D,2 | 
C,6 ||  
[M:2/4]D,<F,-F,2 | 
D,F,D,2 ||  
[M:3/4]C,6 | 
CG, G,F,C2 ||  
[M:2/4]G,4 ||  
[M:3/4]CG, F,E,G,2 ||  
[M:2/4]F,4 | 
D,<F,-F,2 | 
D,F,E,2 ||  
[M:3/4]C,6 ||  
[M:2/4]D,<F,-F,2 | 
D,F,E,2 ||  
[M:3/4]C,6 |]  


